movekom_app/assets/images/kitchen.svg

<svg height="58.115" viewBox="0 0 101.608 58.115" width="101.608" xmlns="http://www.w3.org/2000/svg"><g fill="#fff"><path d="m182.257 307.2h-44.03a1.617 1.617 0 0 0 -1.693 1.529v33.646a1.617 1.617 0 0 0 1.693 1.529h44.03a1.616 1.616 0 0 0 1.693-1.529v-33.646a1.616 1.616 0 0 0 -1.693-1.529zm-1.693 33.646h-40.643v-30.587h40.643z" transform="translate(-109.438 -285.789)"/><path d="m182.257 307.2h-44.03a1.617 1.617 0 0 0 -1.693 1.529v33.646a1.617 1.617 0 0 0 1.693 1.529h44.03a1.616 1.616 0 0 0 1.693-1.529v-33.646a1.616 1.616 0 0 0 -1.693-1.529zm-1.693 33.646h-40.643v-30.587h40.643z" transform="translate(-109.438 -285.789)"/><path d="m28.789 307.2h-27.096a1.617 1.617 0 0 0 -1.693 1.529v33.646a1.617 1.617 0 0 0 1.693 1.53h27.1a1.617 1.617 0 0 0 1.693-1.529v-33.647a1.617 1.617 0 0 0 -1.697-1.529zm-1.689 33.646h-23.713v-30.587h23.713z" transform="translate(0 -285.789)"/><path d="m387.189 307.2h-27.1a1.616 1.616 0 0 0 -1.693 1.529v33.646a1.616 1.616 0 0 0 1.693 1.529h27.1a1.616 1.616 0 0 0 1.693-1.529v-33.646a1.616 1.616 0 0 0 -1.693-1.529zm-1.689 33.646h-23.713v-30.587h23.713z" transform="translate(-287.274 -285.789)"/><path d="m202.843 375.467h-30.483a1.617 1.617 0 0 0 -1.693 1.533v15.29a1.617 1.617 0 0 0 1.693 1.529h30.482a1.616 1.616 0 0 0 1.693-1.529v-15.29a1.616 1.616 0 0 0 -1.692-1.533zm-1.693 15.293h-27.1v-12.234h27.1z" transform="translate(-136.798 -341.821)"/><path d="m0 0h3.387v3.059h-3.387z" transform="translate(52.497 27.528)"/><path d="m0 0h3.387v3.059h-3.387z" transform="translate(45.724 27.528)"/><path d="m0 0h3.387v3.059h-3.387z" transform="translate(38.95 27.528)"/><path d="m0 0h3.387v3.059h-3.387z" transform="translate(59.271 27.528)"/><path d="m0 0h27.095v3.059h-27.095z" transform="translate(1.693 33.646)"/><path d="m0 0h6.774v3.059h-6.774z" transform="translate(11.854 27.528)"/><path d="m0 0h6.774v3.059h-6.774z" transform="translate(11.854 39.763)"/><path d="m0 0h27.095v3.059h-27.095z" transform="translate(72.819 33.646)"/><path d="m0 0h3.387v21.411h-3.387z" transform="translate(84.673 35.175)"/><path d="m0 0h6.774v3.059h-6.774z" transform="translate(82.98 27.528)"/><path d="m0 0h3.387v4.588h-3.387z" transform="translate(77.899 42.822)"/><path d="m0 0h3.387v4.588h-3.387z" transform="translate(91.447 42.822)"/><path d="m433.441 187.733c-3.736 0-6.774 2.744-6.774 6.117v1.529h3.387v-1.529a3.4 3.4 0 0 1 6.774 0v16.823h3.387v-16.823c0-3.373-3.038-6.117-6.774-6.117z" transform="translate(-341.994 -187.733)"/><path d="m0 0h5.08v3.059h-5.08z" transform="translate(91.447 15.294)"/><path d="m172.229 256h-16.935a1.617 1.617 0 0 0 -1.693 1.529v9.176a1.617 1.617 0 0 0 1.693 1.529h16.935a1.617 1.617 0 0 0 1.693-1.529v-9.176a1.617 1.617 0 0 0 -1.693-1.529zm-1.694 9.176h-13.547v-6.117h13.548z" transform="translate(-123.118 -243.765)"/><path d="m0 0h5.08v3.059h-5.08z" transform="translate(27.095 15.294)"/><path d="m0 0h5.08v3.059h-5.08z" transform="translate(49.111 15.294)"/></g></svg>

<svg xmlns="http://www.w3.org/2000/svg" id="prefix__kitchen" width="101.608" height="58.115" viewBox="0 0 101.608 58.115">
    <defs>
        <style>
            .prefix__cls-1{fill:#fff}
        </style>
    </defs>
    <g id="prefix__SVGCleanerId_0" transform="translate(27.096 21.411)">
        <g id="prefix__Grupo_60" data-name="Grupo 60">
            <path id="prefix__Trazado_305" d="M182.257 307.2h-44.03a1.617 1.617 0 0 0-1.693 1.529v33.646a1.617 1.617 0 0 0 1.693 1.529h44.03a1.616 1.616 0 0 0 1.693-1.529v-33.646a1.616 1.616 0 0 0-1.693-1.529zm-1.693 33.646h-40.643v-30.587h40.643z" class="prefix__cls-1" data-name="Trazado 305" transform="translate(-136.534 -307.2)"/>
        </g>
    </g>
    <g id="prefix__Grupo_62" data-name="Grupo 62" transform="translate(27.096 21.411)">
        <g id="prefix__Grupo_61" data-name="Grupo 61">
            <path id="prefix__Trazado_306" d="M182.257 307.2h-44.03a1.617 1.617 0 0 0-1.693 1.529v33.646a1.617 1.617 0 0 0 1.693 1.529h44.03a1.616 1.616 0 0 0 1.693-1.529v-33.646a1.616 1.616 0 0 0-1.693-1.529zm-1.693 33.646h-40.643v-30.587h40.643z" class="prefix__cls-1" data-name="Trazado 306" transform="translate(-136.534 -307.2)"/>
        </g>
    </g>
    <g id="prefix__Grupo_64" data-name="Grupo 64" transform="translate(0 21.411)">
        <g id="prefix__Grupo_63" data-name="Grupo 63">
            <path id="prefix__Trazado_307" d="M28.789 307.2H1.693A1.617 1.617 0 0 0 0 308.729v33.646a1.617 1.617 0 0 0 1.693 1.53h27.1a1.617 1.617 0 0 0 1.693-1.529v-33.647a1.617 1.617 0 0 0-1.697-1.529zM27.1 340.846H3.387v-30.587H27.1v30.587z" class="prefix__cls-1" data-name="Trazado 307" transform="translate(0 -307.2)"/>
        </g>
    </g>
    <g id="prefix__Grupo_66" data-name="Grupo 66" transform="translate(71.126 21.411)">
        <g id="prefix__Grupo_65" data-name="Grupo 65">
            <path id="prefix__Trazado_308" d="M387.189 307.2h-27.1a1.616 1.616 0 0 0-1.693 1.529v33.646a1.616 1.616 0 0 0 1.693 1.529h27.1a1.616 1.616 0 0 0 1.693-1.529v-33.646a1.616 1.616 0 0 0-1.693-1.529zm-1.689 33.646h-23.713v-30.587H385.5v30.587z" class="prefix__cls-1" data-name="Trazado 308" transform="translate(-358.4 -307.2)"/>
        </g>
    </g>
    <g id="prefix__Grupo_68" data-name="Grupo 68" transform="translate(33.869 33.646)">
        <g id="prefix__Grupo_67" data-name="Grupo 67">
            <path id="prefix__Trazado_309" d="M202.843 375.467H172.36a1.617 1.617 0 0 0-1.693 1.533v15.29a1.617 1.617 0 0 0 1.693 1.529h30.482a1.616 1.616 0 0 0 1.693-1.529V377a1.616 1.616 0 0 0-1.692-1.533zm-1.693 15.293h-27.1v-12.234h27.1v12.234z" class="prefix__cls-1" data-name="Trazado 309" transform="translate(-170.667 -375.467)"/>
        </g>
    </g>
    <g id="prefix__Grupo_70" data-name="Grupo 70" transform="translate(52.497 27.528)">
        <g id="prefix__Grupo_69" data-name="Grupo 69">
            <path id="prefix__Rectángulo_1137" d="M0 0H3.387V3.059H0z" class="prefix__cls-1" data-name="Rectángulo 1137"/>
        </g>
    </g>
    <g id="prefix__Grupo_72" data-name="Grupo 72" transform="translate(45.724 27.528)">
        <g id="prefix__Grupo_71" data-name="Grupo 71">
            <path id="prefix__Rectángulo_1138" d="M0 0H3.387V3.059H0z" class="prefix__cls-1" data-name="Rectángulo 1138"/>
        </g>
    </g>
    <g id="prefix__Grupo_74" data-name="Grupo 74" transform="translate(38.95 27.528)">
        <g id="prefix__Grupo_73" data-name="Grupo 73">
            <path id="prefix__Rectángulo_1139" d="M0 0H3.387V3.059H0z" class="prefix__cls-1" data-name="Rectángulo 1139"/>
        </g>
    </g>
    <g id="prefix__Grupo_76" data-name="Grupo 76" transform="translate(59.271 27.528)">
        <g id="prefix__Grupo_75" data-name="Grupo 75">
            <path id="prefix__Rectángulo_1140" d="M0 0H3.387V3.059H0z" class="prefix__cls-1" data-name="Rectángulo 1140"/>
        </g>
    </g>
    <g id="prefix__Grupo_78" data-name="Grupo 78" transform="translate(1.693 33.646)">
        <g id="prefix__Grupo_77" data-name="Grupo 77">
            <path id="prefix__Rectángulo_1141" d="M0 0H27.095V3.059H0z" class="prefix__cls-1" data-name="Rectángulo 1141"/>
        </g>
    </g>
    <g id="prefix__Grupo_80" data-name="Grupo 80" transform="translate(11.854 27.528)">
        <g id="prefix__Grupo_79" data-name="Grupo 79">
            <path id="prefix__Rectángulo_1142" d="M0 0H6.774V3.059H0z" class="prefix__cls-1" data-name="Rectángulo 1142"/>
        </g>
    </g>
    <g id="prefix__Grupo_82" data-name="Grupo 82" transform="translate(11.854 39.763)">
        <g id="prefix__Grupo_81" data-name="Grupo 81">
            <path id="prefix__Rectángulo_1143" d="M0 0H6.774V3.059H0z" class="prefix__cls-1" data-name="Rectángulo 1143"/>
        </g>
    </g>
    <g id="prefix__Grupo_84" data-name="Grupo 84" transform="translate(72.819 33.646)">
        <g id="prefix__Grupo_83" data-name="Grupo 83">
            <path id="prefix__Rectángulo_1144" d="M0 0H27.095V3.059H0z" class="prefix__cls-1" data-name="Rectángulo 1144"/>
        </g>
    </g>
    <g id="prefix__Grupo_86" data-name="Grupo 86" transform="translate(84.673 35.175)">
        <g id="prefix__Grupo_85" data-name="Grupo 85">
            <path id="prefix__Rectángulo_1145" d="M0 0H3.387V21.411H0z" class="prefix__cls-1" data-name="Rectángulo 1145"/>
        </g>
    </g>
    <g id="prefix__Grupo_88" data-name="Grupo 88" transform="translate(82.98 27.528)">
        <g id="prefix__Grupo_87" data-name="Grupo 87">
            <path id="prefix__Rectángulo_1146" d="M0 0H6.774V3.059H0z" class="prefix__cls-1" data-name="Rectángulo 1146"/>
        </g>
    </g>
    <g id="prefix__Grupo_90" data-name="Grupo 90" transform="translate(77.899 42.822)">
        <g id="prefix__Grupo_89" data-name="Grupo 89">
            <path id="prefix__Rectángulo_1147" d="M0 0H3.387V4.588H0z" class="prefix__cls-1" data-name="Rectángulo 1147"/>
        </g>
    </g>
    <g id="prefix__Grupo_92" data-name="Grupo 92" transform="translate(91.447 42.822)">
        <g id="prefix__Grupo_91" data-name="Grupo 91">
            <path id="prefix__Rectángulo_1148" d="M0 0H3.387V4.588H0z" class="prefix__cls-1" data-name="Rectángulo 1148"/>
        </g>
    </g>
    <g id="prefix__Grupo_96" data-name="Grupo 96" transform="translate(84.673)">
        <g id="prefix__Grupo_95" data-name="Grupo 95">
            <path id="prefix__Trazado_311" d="M433.441 187.733c-3.736 0-6.774 2.744-6.774 6.117v1.529h3.387v-1.529a3.4 3.4 0 0 1 6.774 0v16.823h3.387V193.85c0-3.373-3.038-6.117-6.774-6.117z" class="prefix__cls-1" data-name="Trazado 311" transform="translate(-426.667 -187.733)"/>
        </g>
    </g>
    <g id="prefix__Grupo_98" data-name="Grupo 98" transform="translate(91.447 15.294)">
        <g id="prefix__Grupo_97" data-name="Grupo 97">
            <path id="prefix__Rectángulo_1149" d="M0 0H5.08V3.059H0z" class="prefix__cls-1" data-name="Rectángulo 1149"/>
        </g>
    </g>
    <g id="prefix__Grupo_100" data-name="Grupo 100" transform="translate(30.483 12.235)">
        <g id="prefix__Grupo_99" data-name="Grupo 99">
            <path id="prefix__Trazado_312" d="M172.229 256h-16.935a1.617 1.617 0 0 0-1.693 1.529v9.176a1.617 1.617 0 0 0 1.693 1.529h16.935a1.617 1.617 0 0 0 1.693-1.529v-9.176a1.617 1.617 0 0 0-1.693-1.529zm-1.694 9.176h-13.547v-6.117h13.548z" class="prefix__cls-1" data-name="Trazado 312" transform="translate(-153.601 -256)"/>
        </g>
    </g>
    <g id="prefix__Grupo_102" data-name="Grupo 102" transform="translate(27.095 15.294)">
        <g id="prefix__Grupo_101" data-name="Grupo 101">
            <path id="prefix__Rectángulo_1150" d="M0 0H5.08V3.059H0z" class="prefix__cls-1" data-name="Rectángulo 1150"/>
        </g>
    </g>
    <g id="prefix__Grupo_104" data-name="Grupo 104" transform="translate(49.111 15.294)">
        <g id="prefix__Grupo_103" data-name="Grupo 103">
            <path id="prefix__Rectángulo_1151" d="M0 0H5.08V3.059H0z" class="prefix__cls-1" data-name="Rectángulo 1151"/>
        </g>
    </g>
</svg>
